X: 4212
M: 6/8
L: 1/8
K: G
|:\
[1 cBc A2d :|[2 cAF G2d |:\
b2g gfg | def gfg |
a2g fef | def g3 :|\
{DEF}GBd edB | def gdB |\
[1 cBA BAG | ABG FED :|\
[2 c3 B3 | AEF G3 :|


